X:1
T:Jesus, Thy Blood and Name
T:Jesus, Thy Blood and Name
T:Fred L. Hahn, harmonized by C. O. Hinckley
T:Fred L. Hahn, 1897
T:Public Domain Courtesy of the Cyber Hymnal™
T:Public Domain Courtesy of the Cyber Hymnal™
C:Fred L. Hahn, harmonized by C. O. Hinckley
Z:Public Domain
Z:Courtesy of the Cyber Hymnal™
%%score ( 1 2 ) ( 3 4 )
L:1/8
Q:1/4=140
M:3/2
K:C
V:1 treble 
V:2 treble 
V:3 bass 
V:4 bass 
V:1
 C2 E2 G2 | [Ec]6 [Gc]2 [GB]2 [FA]2 | [EG]6 [Ec]2 [EB]2 [EA]2 | [DG]8 [D^F]4 | %4
w: 1.~Je- sus, Thy|blood, Thy pre- cious|blood, For my sin|doth a-|
w: 2.~Je- sus, Thy|name, Thy glor- ious|name! When shall I|know its|
w: 3.~Je- sus, Thy|Word, Thy gra- cious|Word! Most wel- come|news to|
w: 4.~More pre- cious|still than all of|these, Art Thou Thy-|self to|
 [DG]6 [EG]2 [FA]2 [EG]2 | [DF]6 [B,D]2 C2 [CE]2 | [EG]6 [Ec]2 [EB]2 [EA]2 | d8 [D^F]4 | %8
w: tone; Be- cause Thou|art the Lamb of|God, It speaks be-|fore the|
w: worth? It needs of|heav’n- ly fire a|flame, Its glo- ries|to show|
w: me! Oh, teach me|by Thy Spir- it,|Lord, In it Thy-|self to|
w: me, God man- i-|fest in Christ the|Lord— Oh, what will|Hea- ven|
 [DG]6 [EG]2 [DF]2 [CE]2 | [B,D]6 [FA]2 [EG]2 [DF]2 | [CE]6 [Ec]2 [EG]2 [CE]2 | [B,F]8 [B,D]4 | %12
w: throne. Thy blood shall|have its prais- es|sung By yon- der|white robed|
w: forth. Thy name, high|o- ver ev- ery|name, Shall yet ac-|know- ledged|
w: see. More glor- ious|than Thy name, O|Lord, Thy Word will|mag- ni-|
w: be! When all the|blood- washed, glor- i-|fied Shall see Thee|as Thou|
 [CE]6 C2 [CE]2 [EG]2 | [Ec]6 [GB]2 [Fd]2 [Fc]2 | [FA]6 [Fc]2 [EG]2 [CE]2 | [DF]8 [G,B,]4 | %16
w: throng; All hail then|to this pre- cious|blood, By me in|cease- less|
w: be By an- gels,|ser- aphs, and by|men On hum- bly|bend- ed|
w: fy; Thy Word makes|known Thy name, Thy|blood, Brings all their|bless- ings|
w: art, Who by Thy|Word were sanc- ti-|fied, All one in|name and|
 !fermata![G,C]6 ||"^Refrain" [EG]2 [EG]2 [EG]2 | [FG]6 [Gc]2 [GB]2 [FA]2 | [EG]8 [EG]4 | %20
w: song.||||
w: knee.||||
w: nigh.||||
w: heart.||||
 [FA]8 [FA]4 | [DB]8 [FB]4 | [Ec]6 |] %23
w: |||
w: |||
w: |||
w: |||
V:2
 C2 E2 G2 | x12 | x12 | x12 | x12 | x8 C2 x2 | x12 | (D4 G4) x4 | x12 | x12 | x12 | x12 | %12
 x6 C2 x4 | x12 | x12 | x12 | x6 || x6 | x12 | x12 | x12 | x12 | x6 |] %23
V:3
 C,2 E,2 G,2 | [C,G,]6 [E,C]2 [F,C]2 [F,C]2 | [C,C]6 [C,G,]2 [C,G,]2 [C,C]2 | [D,B,]8 [D,A,]4 | %4
w: * Je- sus,||||
 [G,B,]6 G,2 G,2 G,2 | [G,,G,]6 [G,,F,]2 [G,,E,]2 [G,,G,]2 | [C,C]6 [A,,C]2 [B,,D]2 [C,C]2 | %7
w: * Thy blood, Thy|||
 [D,B,]8 [D,A,]4 | [G,B,]6 [G,C]2 [G,B,]2 G,2 | G,6 [G,,G,]2 [G,,G,]2 [G,,G,]2 | %10
w: |* * * pre-|cious * * *|
 [C,G,]6 [C,G,]2 [E,G,]2 [C,G,]2 | [D,G,]8 [G,,G,]4 | [C,G,]6 [C,E,]2 [C,G,]2 [C,C]2 | %13
w: |||
 [C,G,]6 [E,G,]2 [F,A,]2 [F,A,]2 | [F,C]6 [F,A,]2 [G,C]2 G,2 | [G,,G,]8 (G,2 F,2) | %16
w: |* * * blood,||
 !fermata![C,E,]6 || [C,C]2 [E,C]2 [G,C]2 | [G,B,]6 [E,C]2 [F,C]2 [A,C]2 | C8 [C,C]4 | %20
w: |Thy blood, it|cleans- eth me! *||
 [F,C]8 [D,C]4 | G,8 G,4 | [C,G,]6 |] %23
w: |||
V:4
 C,2 E,2 G,2 | x12 | x12 | x12 | x6 G,2 G,2 G,2 | x12 | x12 | x12 | x10 G,2 | G,6 x6 | x12 | x12 | %12
 x12 | x12 | x10 G,2 | x8 G,,4 | x6 || x6 | x12 | x12 | x12 | x8 G,4 | x6 |] %23

